X:3
T:Coucher de soleil (derrière un volet bloqué)
C:Bruno Scherrer
L:1/16
M:3/4
K:Dmaj
V:1
|:"^A""Em7"d8d4|d4c4B2c2-|"DΔ"c8A2F2-|F12|
"Em7"d8-d2d2|d4e4d2c2-|"DΔ"c8A2F2-|F12|
"FΔ"=c8=c4|=c4B4A4|"CΔ"G8E2=C2-|=C8-=C4|
"BbΔ9"E6=F6|D12|z12|z12:| 
"^B""Fm7"_e8_e4 | _e4d4=c2d2-|"EbΔ"d8_B2G2-|G12|
"Fm7"z4_e4_e4|_e4=f4_e2d2-|"EbΔ"d8_B2g2-|g12|
"F#Δ"c8c4|c4^B4^A4|"C#Δ"^G8^E2c2-|c12|
"BΔ"c6B6|B4z8|z12|z12||
%%begintext
Morceau lent. Tout au long du morceau: A calme, B plus soutenu
Intro sur les 2 accords Dm7 Cmaj7
Thème
Solos
Solo de batterie sur les 2 accords Dm7 Cmaj7 (comme pour l'intro)
Thème final
%%endtext

